X:1
T:Motetto a Voce sola in Basso
T:Claudio Monteverdi (1547-1643)
T:Proverbs 8:23-31
T:Motetto a Voce sola in Basso
T:Ab aeterno ordinata sum
C:Claudio Monteverdi
C:(1547-1643)
Z:Proverbs 8:23-31
%%score 1 2
L:1/8
M:4/4
K:C
V:1 bass nm="Bass"
V:2 bass nm="Continuo"
V:1
 C,6 C,2 | C,8 | C,8 | z4 C,4- | C,4 C,4 | D,6 D,2 | C,8 | z4 C,4 | E,4 ^F,D,E,F, | G,4 G,4 | %10
w: Ab ae-|ter-|no|or-|* di-|na- ta|sum,|et|ex an- * * *|ti- quis|
 A,6 B,2 | C4 z4 | B,,3 C,/D,/ G,,3 G,, | G,,6 ^F,,2 | G,,8 |[M:3/1] G,16 G,8 | C16 A,8 | %17
w: an- te-|quam|ter- * * * ra|fi- e-|ret.|Non- dum,|non- dum|
[M:4/4] B,>A, G,>A, B,>C D2 | z2 E,,2 E,,4 | D,,8 | z2 A,2 ^F,G,/A,/ D,E,/F,/ | %21
w: e- * * rant _ _ _|ab- bis-|si,|et e- * * go _ _|
 G,>A, B,/A,/G,/F,/ E,F,/G,/ C,D,/E,/ | A,,4 A,2 G,2 | ^F,2 E,2 F,2 D,2 | E,8 | D,4 z2 D,2 | %26
w: _ _ _ _ _ _ _ _ _ _ _ _|* jam con-|cep- * ta _|e-|ram: nec|
 B,,2 E,3 A,, A,2 | A,/G,/F,/E,/ D,/C,/B,,/A,,/ G,, G,2 E,- | E, A,2 ^F,2 B,2 E,- | %29
w: dum fon- tes a-|qua- * * * * * * * rum e- ru-|* pe- rant, e- ru-|
 E, A,2 D, z2 G,,2 | D,2 G,>A, B,>C D2 | E,,4 A,,4 | D,,4 D,,4 | z2 D,2 B,,A,,B,,G,, | D,6 D,2 | %35
w: * pe- rant; nec|dum mon- tes _ _ _|gra- vi|mo- le|con- sti- * * *|* te-|
 G,,8 | G,3 G, D,2 G,2 | C,4 C,4 | E,4 E,A,G,A, | D,4- D,/C,/B,,/C,/ D,/E,/^F,/D,/ | %40
w: rant,|an- te om- nes|col- les|e- go par- tu- ri-|e- * * * * * * * *|
 E,/D,/E,/^F,/ ^G,/E,/F,/G,/ A,/E,/F,/^C,/- C,>D, | E,8 | A,,8 | z F, C2 F,,4 | F,,4 z2 F,2 | %45
w: ||bar.|Ad- huc ter-|ra non|
 D,6 D,2 | C,4 z2 C2 | B,2 G,2 D>C B,>A, | G,/A,/B,/A,/ G,/F,/E,/D,/ E,/F,/G,/F,/ E,/D,/C,/B,,/ | %49
w: fe- ce-|rat, et|flu- mi- na, _ _ _|_ _ _ _ _ _ _ _ _ _ _ _ _ _ _ _|
 A,,/B,,/C,/B,,/ A,,/^F,,/G,,/A,,/ D,,4 | z2 G,,2 G,4- | G,2 F,E, A,4- | A,2 B,/A,/B,/C/ D2 D,2 | %53
w: |et car-|* di- nes or-|* * * * * * bem|
 E,8 | A,,8 | F,4 F,4 | z2 F,F, A,2 B,2 | C2 C2 z4 | CB,CA, G,F,G,E, | F,E,F,D, C,B,,C,A,, | %60
w: ter-|rae.|Quan- do|prae- pa- ra- bat|cae- los,|a- * * * * * * *||
 G,,6 G,,2 | C,4 z4 | G,4 G,4 | G,3 ^F, G,2 G,2 | z2 G,2 E,4 | %65
w: * de-|ram;|quan- do|cer- ta leg- ge|et gi-|
 A,/G,/F,/E,/ F,/E,/D,/C,/ D,/C,/B,,/C,/ D,/E,/F,/D,/ | G,/F,/E,/D,/ E,/D,/C,/B,,/ C,2 C2 | %67
w: ro _ _ _ _ _ _ _ _ _ _ _ _ _ _ _|_ _ _ _ _ _ _ _ _ val-|
 G,2 E,2 C,2 A,,2 | D,,4 z2 D>C | B,>A, G,>F, E,>D, C,>B,, | A,,>G,, F,,2 E,,3 F,, | G,,8 | C,,8 | %73
w: la- * * *|bant a- *|||bis-|sos;|
 z2 C,4 C,2 | E,6 F,2 | G,4 z2 G,,2 | G,4 G,4 | A,8 | B,4 z4 | G,4 G,4 | G,4 G,4 | G,4 G,4- | %82
w: quan- do|ae- the-|ra fir-|ma- bat|sur-|sum,|et li-|bra- bat|fon- tes|
 G,2 G,2 G,4 | G,8 | F,4 F,4 | F,2 F,3 F, G,2 | A,2 G,2 F,2 E,2 | F,2 E,2 F,2 G,2 | %88
w: _ a- qua-|rum;|quan- do|cir- cum- da- bat|ma- * * *||
 A,2 G,2 F,2 E,2 | F,2 E,2 D,2 ^C,2 | D,2 C,2 B,,2 A,,2 | B,,2 A,,2 G,,2 ^F,,2 | G,,4 G,,4 | %93
w: ||||* ri|
 z2 G,,3 F,, E,,2 | D,,4 D,,2 D,2 | B,,2 G,,G, E,2 C,C | A,2 F,A, G,2 F,2 | %97
w: ter- mi- num|su- um, et|le- gem, et le- gem, et|le- gem po- ne- bat|
 C,/B,,/A,,/B,,/ C,/D,/E,/F,/ G,/F,/E,/F,/ G,/A,/B,/G,/ | %98
w: ac- * * * * * * * * * * * * * * *|
 C/B,/A,/G,/ C/B,/A,/G,/ A,/G,/F,/E,/ A,/G,/F,/E,/ | %99
w: |
 F,/D,/E,/F,/ G,/F,/E,/D,/ C,/D,/E,/D,/ C,B,,/A,,/ | G,,2 G,,2 G,2 F,2 | E,2 D,2 A,B,/C/ B,2 | %102
w: |* quis, tran- *|si- rent ne _ _ tran-|
 A,2 G,2 A,G,F,E, | D,2 D,2 G,4- | G,2 E,2 A,4- | A,2 D,2 D2 C2 | B,2 A,2 G,2 F,2 | %107
w: si- rent fi- * nes _|su- os; quan-|* do, quan-|* do a- pen-|de- bat fun- da-|
 E,>D, C,>B,, A,,3 G,,/F,,/ | E,,2 F,,2 G,,4 | C,,8 |[M:3/2] z8 C,4 | D,4 E,4 F,4 | E,12 | %113
w: men- * * * * * *|* ta ter-|rae:|cum|e- o, cum|e-|
 A,,8 A,4 | G,8 F,4 | E,12 | D,8 B,,4 | C,4 D,4 E,4 | D,12 | G,,8 G,4 | A,2 G,2 F,2 E,2 F,2 E,2 | %121
w: o, cum|e- o|e-|ram, cum|e- o, cum|e-|o, cum|e- * * * o _|
 D,12 | C,4 C,4 B,,4 | A,,4 G,,4 F,,4 | G,,12 | C,8 z4 | z12 | z12 | G,4 F,4 G,4 | E,4 F,4 G,4 | %130
w: e-|ram cun- cta,|cun- cta com-|po-|nes.|||Et de- lec-|ta- bor per|
 A,4 G,4 A,4 | D,4 E,2 D,2 E,2 ^F,2 | G,4 G,4 z4 | E,4 D,4 E,4 | A,,4 B,,4 C,4 | D,4 C,4 D,4 | %136
w: sin- gu- los|di- * * * *|* es,|et de- lec-|ta- bor per|sin- gu- los|
 G,,8 G,,4 | D,2 C,2 D,2 E,2 ^F,2 D,2 | G,4 ^F,6 G,2 | E,4 z4 z4 | C4 B,4 C4 | A,4 G,4 A,4 | %142
w: di- es|lu- * * * * *|* dens _|_|lu- * *|dens co- ram,|
 B,4 A,4 A,4 | A,8 ^G,4 | A,4 A,2 =G,2"^#" ^F,2 E,2 | ^F,2 D,2 E,2 F,2 G,2 A,2 | G,8 =F,4 | %147
w: co- * ram|e- *|o om- * * *||* ni,|
 z4 E,2 D,2 ^C,2 B,,2 | ^C,2 A,,2 B,,2 C,2 D,2 E,2 | D,2 E,2 ^F,2 E,2 D,2 =C,2 | %150
w: om- * * *|||
 B,,2 C,2 D,2 C,2 B,,2 A,,2 | G,,6 F,,2 E,,4 | F,,4 G,,6 G,,2 | C,8 z4 | A,4 G,4 A,4 | D,8 z4 | %156
w: ||ni tem- po-|re,|lu- * *|dens,|
 G,,4 A,,4 B,,4 | C,4 B,,4 C,4 | F,,8 F,,4 | z4 C,4 B,,4 | A,,6 A,,2 A,,4 | D,4 E,4 ^F,4 | %162
w: lu- dens in|or- bem ter-|ra- rum|et de-|li- ti- ae,|lu- dens in|
 G,8 G,4 | G,4 A,4 B,4 | C4 B,4 C4 | A,4 ^G,6 A,2 | ^F,4 E,6 F,2 | G,4 G,4 =F,4 | E,6 E,2 E,4 | %169
w: or- bem,|lu- dens in|or- bem ter-|ra- rum, _|_ _ _|* et de-|li- ti- ae|
 z4 A,4 G,4 | ^F,6 F,2 E,4 | D,8 D,4 | G,8 =F,4 | E,6 E,2 D,4 | C,6 C,2 C,4 |[M:4/4] z2 F,2 F,4- | %176
w: et de-|li- te- ae|me- ae,|es- se,|es- se cum|fi- li- is,|cum fi-|
 F,2 E,2 E,4 | D,6 D,2 |[M:3/2] C,8 z4 | z4 C4 B,4 | A,6 A,2 G,4 | F,6 F,2 G,4 | %182
w: * li- is|ho- mi-|num,|es- se,|es- se cum|fi- li- is|
[M:4/4] z A,/B,/ C/B,/A,/G,/ A,/G,/F,/E,/ F,/C,/D,/E,/ | F,/C,/D,/E,/ F,/G,/A,/B,/ C2 A,2 | %184
w: ho- * * * * * * * * * * * * *||
 F,2 C,2 A,,3 B,,/C,/ | F,,6 F,,2 | C,2 x30 |] %187
w: |* mi-|num.|
V:2
 C,8- | C,8 | C,6 B,,2 | A,,6 G,,2 | F,,4 E,,4 | G,,8 | C,8 | C,6 D,2 | E,4 ^F,4 | G,8 | A,8- | %11
 A,8 | B,,8 | A,,8 | G,,8 |[M:3/1] G,24 | A,24 |[M:4/4] G,6 ^F,2 | E,8 | D,6 E,2 | ^F,8 | G,4 C,4 | %22
 A,,8 |"^#" D,4 B,,4 | A,,8 | D,8 | B,,2 E,2"^#" A,,4 |"^#" D,4 G,,2 C,2 | A,,2"^#" D,2 B,,2 E,2 | %29
 A,,2 D,2 G,,4- | G,,4 G,2 ^F,2 | E,4 A,,4 | D,6 C,2 | B,,4 G,,4 | D,8 | G,,8 | G,,8 | C,8 | A,,8 | %39
"^#" D,8 |"^#" E,4"^#" A,,4 | E,8 |"^#" A,,8 | A,4 F,,4 | F,,4 F,4 | F,8 | C,3 D, E,2 ^F,2 | %47
 G,4 D,4 | G,2 F,2 E,4 | A,,4 D,,4 | G,,6 G,,2 | C,6 B,,A,, | D,8 | E,8 | A,,8 | F,8 | D,8 | %57
 C,6 C,2 | A,4 G,2 E,2 | F,2 D,2 C,2 A,,2 | G,,2 F,,2 G,,4 | C,3 D, E,2 ^F,2 | G,8 | %63
 C,2 D,2 G,,3 A,, | B,,2 G,,2 C,4 |"^#" A,,4"^#" D,4 | G,,4 C,4 | C,4 A,,4 | D,3 C, B,,2 A,,2 | %69
 G,4 C,2 B,,2 | A,,2 F,,2 E,,4 | G,,8 | C,,8 | C,8 | A,,8 | G,,3 A,, B,,2 G,,2 | C,2 D,2 E,2 B,,2 | %77
 C,2 A,,2 D,4 | G,,4 G,2 F,2 | E,2 D,2 C,2 D,2 | E,2 B,,2 C,2 D,2 | E,2 D,2 C,2 B,,A,, | %82
 G,,2 F,,2 G,,4 | C,8 | F,,8 | F,,6 C,2 | F,6 E,2 | F,4 E,4 | D,4 ^C,4 | D,4 ^C,4 | B,,4 A,,4 | %91
 G,,4 ^F,,4 | G,,8 | E,,8 | D,,4 D,,4 | G,,4 C,4 | F,4 E,2 D,2 | C,4 G,4 | C2 B,2 A,2 G,2 | %99
 F,2 D,2 C,4 | G,2 F,2 E,2 D,2 | C,2 B,,2 A,,2 G,,2 | F,2 E,2 D,2 C,2 | G,,8 | C,6 A,,2 | D,8 | %106
 G,2 F,2 E,2 D,2 | C,2 B,,2 A,,4 | E,,4 G,,4 | C,,8 |[M:3/2] C,8 C,4 | D,4 E,4 F,4 | E,12 | %113
 A,,8 F,,4 | G,,8 G,,4 | A,,12 | D,8 B,,4 | C,4 D,4 E,4 | D,12 | G,,12 | F,,12 | G,,12 | %122
 C,4 D,4 E,4 | F,4 G,4 A,4 | G,12 | C,4 B,,4 C,4 | A,,4 B,,4 ^C,4 | D,4 =C,4 D,4 | G,,12 | C,12 | %130
"^#" A,,8 A,,4 | D,8 D,4 | G,4 ^F,4 G,4 | E,8 E,4 | A,4 ^G,4 A,4 | D,4 E,4 ^F,4 | %136
 G,4"^#" ^F,4 G,4 | D,8 D,4 | G,,2 F,,2 G,,2 A,,2 B,,2 G,,2 | C,4 B,,6 C,2 | A,,12 | F,4 E,4 F,4 | %142
 D,4 C,4 D,4 | E,8 E,4 | A,,12 | D,12 | G,8 F,4 | E,8 D,4 | ^C,8 C,4 |"^#" D,8 =C,4 | B,,8 A,,4 | %151
 G,,8 E,,4 | F,,4 G,,8 | C,4 B,,4 C,4 | A,,12 | D,4 E,4 ^F,4 | G,4 ^F,4 G,4 | C,4 D,4 E,4 | %158
 =F,4 E,4 F,4 | C,8 B,,4 | A,,4 A,4 G,4 | ^F,6 E,2 D,4 | G,,4 A,,4 B,,4 | C,12 | C,4 D,4 E,4 | %165
 F,4 E,4 F,4 | D,4 C,4 D,4 | G,,4 F,,4 G,,4 | C,8 B,,4 | A,,6 A,,2 A,,4 | D,8 C,4 | %171
 B,,6 B,,2 A,,4 | G,,8 G,,4 | C,8 B,,4 | A,,8 G,,4 |[M:4/4] F,,8 | G,,8- | G,,8 | %178
[M:3/2] C,4 C,4 B,,4 | A,,8 G,,4 | F,,12 | F,,8 E,,4 |[M:4/4] F,,8 | F,,4 F,,4- | F,,4 F,,4 | %185
 F,,8 | C,2 x30 |] %187

